icons/badge/question/octagon.svg

<svg width="32" height="32" viewBox="0 0 32 32" xmlns="http://www.w3.org/2000/svg"><path fill-rule="evenodd" clip-rule="evenodd" d="M9.66667 2.58579C10.0417 2.21071 10.5504 2 11.0809 2H20.9191C21.4496 2 21.9583 2.21071 22.3333 2.58579L29.4142 9.66667C29.7893 10.0417 30 10.5504 30 11.0809V20.9191C30 21.4496 29.7893 21.9583 29.4142 22.3333L22.3333 29.4142C21.9583 29.7893 21.4496 30 20.9191 30H11.0809C10.5504 30 10.0417 29.7893 9.66667 29.4142L2.58579 22.3333C2.21071 21.9583 2 21.4496 2 20.9191V11.0809C2 10.5504 2.21071 10.0417 2.58579 9.66667L9.66667 2.58579ZM20.9191 4L11.0809 4L4 11.0809V20.9191L11.0809 28L20.9191 28L28 20.9191L28 11.0809L20.9191 4ZM14.5 23V20H17.5V23H14.5ZM14 13C14 12.1541 14.2108 11.7034 14.4571 11.4571C14.7034 11.2108 15.1541 11 16 11C16.9753 11 17.4308 11.1356 17.65 11.3C17.7914 11.406 18 11.6516 18 12.5C18 12.8955 17.8915 13.1089 17.7573 13.273C17.587 13.4811 17.3437 13.6523 16.9453 13.9179L16.905 13.9448C16.5558 14.1773 16.0723 14.4992 15.6948 14.9605C15.2665 15.4839 15 16.1455 15 17V18H17V17C17 16.6045 17.1085 16.3911 17.2427 16.227C17.413 16.0189 17.6563 15.8477 18.0547 15.5821L18.095 15.5552L18.095 15.5552C18.4442 15.3227 18.9277 15.0008 19.3052 14.5395C19.7335 14.0161 20 13.3545 20 12.5C20 11.3484 19.7086 10.344 18.85 9.7C18.0692 9.11439 17.0247 9 16 9C14.8459 9 13.7966 9.28921 13.0429 10.0429C12.2892 10.7966 12 11.8459 12 13H14Z"/></svg>

<svg viewBox="0 0 32 32" xmlns="http://www.w3.org/2000/svg"><path fill-rule="evenodd" d="M9.667 2.586A2 2 0 0111.08 2h9.838a2 2 0 011.414.586l7.081 7.08A2 2 0 0130 11.082v9.838a2 2 0 01-.586 1.414l-7.08 7.081a2 2 0 01-1.415.586h-9.838a2 2 0 01-1.414-.586l-7.081-7.08A2 2 0 012 20.918v-9.838a2 2 0 01.586-1.414l7.08-7.081zM20.919 4h-9.838L4 11.08v9.84L11.08 28h9.84L28 20.92v-9.84L20.92 4zM14.5 23v-3h3v3h-3zM14 13c0-.846.21-1.297.457-1.543.246-.246.697-.457 1.543-.457.975 0 1.43.136 1.65.3.141.106.35.352.35 1.2 0 .396-.108.609-.243.773-.17.208-.413.38-.812.645l-.04.027c-.35.232-.833.554-1.21 1.015-.428.524-.695 1.185-.695 2.04v1h2v-1c0-.395.108-.609.243-.773.17-.208.413-.38.812-.645l.04-.027c.35-.232.833-.554 1.21-1.015.428-.524.695-1.185.695-2.04 0-1.152-.291-2.156-1.15-2.8-.78-.586-1.825-.7-2.85-.7-1.154 0-2.203.29-2.957 1.043C12.289 10.797 12 11.846 12 13h2z"/></svg>
